gtk/icon/16x16/apps/hotspot.svg

<svg xmlns="http://www.w3.org/2000/svg" width="16" height="16" version="1">
 <path style="fill:#ff7d20" d="M 6.984375,1.1425781 C 5.9134852,2.3503926 5.2806,3.6318609 5.25,4.8613281 5.2175192,6.1663853 5.6153509,7.391031 6.0507812,8.3203125 6.106187,8.4393152 6.0601286,8.580902 5.9453125,8.6445312 5.4959661,8.8910177 5.1108803,9.2405423 4.8222656,9.6640625 4.6713089,9.8849001 4.32576,9.7463827 4.3691406,9.4824219 L 4.4277344,9.1269531 C 4.4274804,9.061409 4.3617665,9.024416 4.3515625,8.96875 c -0.00878,0.039544 -0.00706,0.098745 -0.015625,0.1367188 -0.064055,0.2836698 -0.115633,0.5248315 -0.078125,0.8398437 0.012351,0.1037305 0.058619,0.1915525 0.1347656,0.3027345 0.043789,0.06492 0.054632,0.146603 0.029297,0.220703 -0.1553674,0.458699 -0.2057395,0.946902 -0.1484375,1.427734 v 0.002 c 0.020356,0.15869 0.052227,0.314776 0.095703,0.46875 0.075204,0.270426 -0.2837054,0.440441 -0.4453125,0.210937 -0.050195,-0.07197 -0.1208157,-0.170953 -0.1835937,-0.251953 0.089833,0.718343 0.2917253,1.418153 0.7089844,1.988281 0.6538654,0.893419 1.643732,1.48049 2.8457031,1.431641 0.00326,-6.3e-5 0.00651,-6.3e-5 0.00977,0 2.054346,0.0019 3.2079115,-0.805136 3.8339845,-1.994141 0.624751,-1.186492 0.694159,-2.79087 0.417969,-4.3339842 C 11.392094,8.7721787 11.055381,8.0828761 10.544922,7.4472656 9.7303914,6.4330326 8.7334407,5.8330211 7.9277344,5.1191406 7.8794264,5.076666 7.84935,5.017207 7.84375,4.953125 7.7734014,4.1329125 7.7417844,3.3410618 7.7402344,2.4980469 c -0.00361,0.00827 -0.012125,0.015008 -0.015625,0.023437 C 7.6034518,2.8136349 7.473555,3.323208 7.375,3.7421875 c -0.053632,0.234862 -0.3757402,0.2654754 -0.4726562,0.044922 -0.012407,-0.027836 -0.051872,-0.08262 -0.087891,-0.1816406 -0.00394,-0.010192 -0.0072,-0.020631 -0.00977,-0.03125 C 6.6377708,2.8231037 6.7601626,1.9982794 6.9296875,1.3125 6.9502385,1.2293651 6.962522,1.2214681 6.984375,1.1425781 Z M 4.3300781,12.972656 c 0.010794,0.02421 0.021862,0.0483 0.033203,0.07227 -0.016096,0.0051 -0.023398,0.01272 -0.041016,0.01758 0.010678,-0.02966 0.00417,-0.05989 0.00781,-0.08984 z"/>
 <path style="fill:#ff7d20" d="m 7.6191406,0 c 0,0 -1.5011117,2.0934291 -1.359488,3.4243588 0.1153228,1.0837632 2.3482071,4.4084809 3.0377445,6.6076352 l -2.5109402,0.0037 C 6.4060725,9.591883 4.9372877,7.3743291 5,4.8545892 5.0404186,3.2305948 5.8008046,1.481075 7.6191406,0 Z"/>
 <path style="fill:#d83b2f" d="M 4.2004854,8.0998659 C 4.2485394,8.8493681 3.9241632,9.259741 4.009326,9.974975 4.045881,10.281976 4.2760984,10.471857 4.4169089,10.734 l 0.094317,-0.575445 c 0.00778,-0.04486 0.014616,-0.08883 0.022176,-0.134738 l 0.1448436,-0.882538 0.00618,-0.0076 -0.00449,-0.0017 v -5.6e-4 c 0,-0.4433508 -0.2131179,-0.7035081 -0.4794435,-1.03155 z"/>
 <path style="fill:#ff7d20" d="M 8.126433,1.4105362 C 7.9165494,1.8094035 7.6623745,2.0196262 7.4942256,2.4250875 7.2701462,2.9654157 7.0000271,4.2495078 7.0000271,4.2495078 L 7.538699,5.0695555 8.1343905,5.4639449 C 8.023404,4.3058691 7.9575081,3.3146202 7.9751454,2.1506196 7.9781054,1.9546043 8.0915362,1.6047286 8.126433,1.4105362 Z"/>
 <circle style="fill:#ffb832" cx="6.04" cy="12.329" r="3.5" transform="rotate(-7.0121527)"/>
 <path style="fill:#db3f2e" d="m 7.6191406,0 c -2.9352892,3.0991523 -1.1844287,4.5730739 0.03125,6.7714844 0.2006939,0.3787487 0.3966352,0.8671167 0.5527344,1.3144531 0.00136,2.815e-4 0.00254,0.00167 0.00391,0.00195 0.1736992,0.036043 0.3417189,0.083403 0.5058594,0.1445313 0.00384,0.00142 0.00788,0.00247 0.011719,0.00391 0.00658,0.00248 0.012969,0.0053 0.019531,0.00781 0.1620109,0.06211 0.3186633,0.1320196 0.46875,0.2167969 0.2682374,0.1515152 0.5108694,0.3390098 0.7304688,0.5546875 0.041467,0.040292 0.085543,0.076794 0.1249998,0.1191406 0.07325,0.07941 0.137289,0.1657795 0.203125,0.2519532 0.06156,0.079774 0.121153,0.1607835 0.175782,0.2460937 0.0517,0.081428 0.09948,0.1639442 0.144531,0.25 0.05851,0.110865 0.109695,0.2256103 0.15625,0.3437493 0.02925,0.07467 0.05975,0.147321 0.08398,0.22461 0.06299,0.199792 0.114078,0.405259 0.140625,0.621094 0.171461,1.39399 -0.50617,2.689736 -1.6230468,3.388672 -0.014368,0.01011 -0.030349,0.01755 -0.044922,0.02734 -0.062581,0.03785 -0.1203394,0.08122 -0.1855469,0.115235 -0.015322,0.008 -0.03147,0.0088 -0.046875,0.01563 -0.047805,0.02487 -0.090833,0.05641 -0.140625,0.07813 -0.2976727,0.129794 -0.6313861,0.20194 -1.0039062,0.208984 -1.4468014,0.02736 -2.3329203,-0.552474 -2.687086,-1.666016 -0.0613,-0.380922 0.03491,-0.892288 0.2558594,-1.021484 -0.1275899,0.04375 -0.2826854,0.0927 -0.46875,0.265625 -0.313452,0.29118 -0.295467,0.465071 -0.7050782,0.578125 0.2078759,-0.577488 -0.9878135,-1.207408 -0.8671874,-2.003906 -0.438213,2.385861 1.2699578,5.042294 3.849591,4.937455 C 11.550115,16 12.372315,12.528187 11.802736,9.3632864 11.629102,8.6775462 11.27376,7.9553478 10.740234,7.2910156 9.3936018,5.6142225 7.6054805,5.0498476 7.0488281,3.5195312 6.7438366,2.1470877 7.4907271,0.33813391 7.6191406,0 Z"/>
 <path style="fill:#ff7d20" d="M 10.373047 8.1523438 L 10.943359 9.125 C 10.951259 9.14764 10.966797 9.1933594 10.966797 9.1933594 L 11.257812 10.007812 C 11.473088 11.02626 11.442798 12.042088 11.128906 12.873047 C 10.675928 14.072205 9.6936348 14.939141 8.6582031 15.367188 C 6.8460038 16.116347 4.7890874 15.525383 3.8164062 13.630859 C 3.8299814 13.69281 3.8513335 13.752078 3.8691406 13.8125 C 3.9685206 14.013013 4.0775836 14.207087 4.2050781 14.388672 C 4.241822 14.442007 4.2831175 14.491598 4.3222656 14.542969 C 5.0179661 15.442866 6.0555643 16.046859 7.3046875 15.996094 C 7.3876322 15.996171 7.4606693 15.986924 7.5410156 15.984375 C 7.5415225 15.984216 7.5484 15.974655 7.5488281 15.974609 C 7.5511915 15.97436 7.5524106 15.982079 7.5546875 15.982422 C 10.494282 15.88347 11.704563 14.050326 11.921875 11.855469 C 11.921898 11.852906 11.913802 11.814092 11.914062 11.8125 C 11.910262 11.633006 11.903379 11.453173 11.880859 11.271484 C 11.808599 10.697107 11.641891 10.143838 11.396484 9.6289062 L 11.400391 9.6269531 L 11.359375 9.5546875 C 11.245962 9.3258631 11.117255 9.1043696 10.972656 8.8925781 L 10.951172 8.8554688 L 10.373047 8.1523438 z"/>
</svg>

<svg xmlns="http://www.w3.org/2000/svg" width="16" height="16" version="1">
 <path style="fill:#ff7d20" d="M 6.9844,1.1426 C 5.9135,2.3504 5.2806,3.6319 5.25,4.8613 5.2175,6.1664 5.6154,7.391 6.0508,8.3203 6.1062,8.4393 6.0601,8.5809 5.9453,8.6445 5.496,8.891 5.1109,9.2405 4.8223,9.6641 4.6713,9.8849 4.3258,9.7464 4.3691,9.4824 L 4.4277,9.127 C 4.4275,9.0614 4.3618,9.0244 4.3516,8.9687 4.3428,9.0083 4.3445,9.0675 4.3359,9.1055 4.2719,9.3891 4.2203,9.6303 4.2578,9.9453 4.2702,10.049 4.3164,10.137 4.3926,10.248 4.4364,10.313 4.4472,10.395 4.4219,10.469 4.2665,10.927 4.2161,11.416 4.2734,11.896 V 11.898 C 4.2938,12.057 4.3257,12.213 4.3691,12.367 4.4443,12.638 4.0854,12.808 3.9238,12.578 3.8736,12.506 3.803,12.407 3.7402,12.326 3.8301,13.045 4.032,13.744 4.4492,14.314 5.1031,15.208 6.093,15.795 7.2949,15.746 7.2982,15.746 7.3014,15.746 7.3047,15.746 9.359,15.748 10.513,14.941 11.139,13.752 11.763,12.566 11.833,10.961 11.557,9.418 11.392,8.7722 11.055,8.0829 10.545,7.4473 9.7304,6.433 8.7334,5.833 7.9277,5.1191 7.8794,5.0767 7.8494,5.0172 7.8437,4.9531 7.7734,4.1329 7.7418,3.3411 7.7402,2.498 7.7366,2.5063 7.7281,2.5131 7.7246,2.5215 7.6035,2.8136 7.4736,3.3232 7.375,3.7422 7.3214,3.977 6.9993,4.0077 6.9023,3.7871 6.8899,3.7593 6.8505,3.7045 6.8145,3.6055 6.8105,3.5953 6.8073,3.5848 6.8047,3.5742 6.6378,2.8231 6.7602,1.9983 6.9297,1.3125 6.9502,1.2294 6.9625,1.2215 6.9844,1.1426 Z M 4.3301,12.973 C 4.3409,12.997 4.3519,13.021 4.3633,13.045 4.3472,13.05 4.3399,13.058 4.3223,13.063 4.3329,13.033 4.3264,13.003 4.3301,12.973 Z"/>
 <path style="fill:#ff7d20" d="M 7.6191,0 C 7.6191,0 6.118,2.0934 6.2597,3.4244 6.375,4.5081 8.6079,7.8328 9.2974,10.032 L 6.7865,10.036 C 6.4061,9.5919 4.9373,7.3743 5,4.8546 5.0404,3.2306 5.8008,1.4811 7.6191,0 Z"/>
 <path style="fill:#d83b2f" d="M 4.2005,8.0999 C 4.2485,8.8494 3.9242,9.2597 4.0093,9.975 4.0459,10.282 4.2761,10.472 4.4169,10.734 L 4.5112,10.159 C 4.519,10.114 4.5258,10.07 4.5334,10.024 L 4.6782,9.1413 4.6844,9.1337 4.6799,9.132 V 9.1314 C 4.6799,8.6881 4.4668,8.4279 4.2005,8.0999 Z"/>
 <path style="fill:#ff7d20" d="M 8.1264,1.4105 C 7.9165,1.8094 7.6624,2.0196 7.4942,2.4251 7.2701,2.9654 7,4.2495 7,4.2495 L 7.5387,5.0696 8.1344,5.4639 C 8.0234,4.3059 7.9575,3.3146 7.9751,2.1506 7.9781,1.9546 8.0915,1.6047 8.1264,1.4105 Z"/>
 <circle style="fill:#ffb832" cx="6.04" cy="12.329" r="3.5" transform="rotate(-7.0122)"/>
 <path style="fill:#db3f2e" d="M 7.6191,0 C 4.6839,3.0992 6.4347,4.5731 7.6504,6.7715 7.8511,7.1502 8.047,7.6386 8.2031,8.0859 8.2045,8.0862 8.2057,8.0876 8.207,8.0879 8.3807,8.1239 8.5488,8.1713 8.7129,8.2324 8.7167,8.2338 8.7208,8.2349 8.7246,8.2363 8.7312,8.2388 8.7376,8.2416 8.7441,8.2441 8.9062,8.3062 9.0628,8.3762 9.2129,8.4609 9.4811,8.6125 9.7238,8.7999 9.9434,9.0156 9.9848,9.0559 10.029,9.0924 10.068,9.1348 10.142,9.2142 10.206,9.3005 10.271,9.3867 10.333,9.4665 10.393,9.5475 10.447,9.6328 10.499,9.7142 10.547,9.7968 10.592,9.8828 10.65,9.9937 10.701,10.108 10.748,10.227 10.777,10.301 10.808,10.374 10.832,10.451 10.895,10.651 10.946,10.856 10.973,11.072 11.144,12.466 10.466,13.762 9.3496,14.461 9.3352,14.471 9.3193,14.478 9.3047,14.488 9.2421,14.526 9.1843,14.569 9.1191,14.604 9.1038,14.612 9.0877,14.612 9.0723,14.619 9.0245,14.644 8.9814,14.676 8.9316,14.697 8.634,14.827 8.3003,14.899 7.9277,14.906 6.4809,14.934 5.5948,14.354 5.2406,13.24 5.1793,12.859 5.2756,12.348 5.4965,12.219 5.3689,12.263 5.2138,12.311 5.0278,12.484 4.7143,12.776 4.7323,12.949 4.3227,13.063 4.5306,12.485 3.3349,11.855 3.4555,11.059 3.0173,13.444 4.7254,16.101 7.3051,15.996 11.55,16 12.372,12.528 11.803,9.3633 11.629,8.6775 11.274,7.9553 10.74,7.291 9.3936,5.6142 7.6055,5.0498 7.0488,3.5195 6.7438,2.1471 7.4907,0.33813 7.6191,0 Z"/>
 <path style="fill:#ff7d20" d="M 10.373,8.1523 10.943,9.125 C 10.951,9.1476 10.967,9.1934 10.967,9.1934 L 11.258,10.008 C 11.473,11.026 11.443,12.042 11.129,12.873 10.676,14.072 9.6936,14.939 8.6582,15.367 6.846,16.116 4.7891,15.525 3.8164,13.631 3.83,13.693 3.8513,13.752 3.8691,13.813 3.9685,14.013 4.0776,14.207 4.2051,14.389 4.2418,14.442 4.2831,14.492 4.3223,14.543 5.018,15.443 6.0556,16.047 7.3047,15.996 7.3876,15.996 7.4607,15.987 7.541,15.984 7.5415,15.984 7.5484,15.975 7.5488,15.975 7.5512,15.974 7.5524,15.982 7.5547,15.982 10.494,15.883 11.705,14.05 11.922,11.855 11.922,11.853 11.914,11.814 11.914,11.813 11.91,11.633 11.903,11.453 11.881,11.271 11.809,10.697 11.642,10.144 11.396,9.6289 L 11.4,9.627 11.359,9.5547 C 11.246,9.3259 11.117,9.1044 10.973,8.8926 L 10.951,8.8555 Z"/>
</svg>
